projects/flag-game/flags/Mayotte.svg

<svg viewBox="0 0 1000 667" xmlns="http://www.w3.org/2000/svg" xmlns:xlink="http://www.w3.org/1999/xlink"><clipPath id="a"><path d="m0 0h1000v666.71875h-1000zm0 0"/></clipPath><clipPath id="b"><path d="m0 0h667v666.71875h-667zm0 0"/></clipPath><clipPath id="c"><path d="m0 0h334v666.71875h-334zm0 0"/></clipPath><g clip-path="url(#a)"><path d="m0 666.667969v-666.667969h1000v666.667969zm0 0" fill="#ed2939" fill-rule="evenodd"/></g><g clip-path="url(#b)"><path d="m0 0h666.667969v666.667969h-666.667969zm0 0" fill="#fff" fill-rule="evenodd"/></g><g clip-path="url(#c)"><path d="m0 0h333.332031v666.667969h-333.332031zm0 0" fill="#002395" fill-rule="evenodd"/></g></svg>

<?xml version="1.0" encoding="UTF-8"?>
<svg xmlns="http://www.w3.org/2000/svg" xmlns:xlink="http://www.w3.org/1999/xlink" viewBox="0 0 1000 667" version="1.1">
<defs>
<clipPath id="clip1">
  <path d="M 0 0 L 1000 0 L 1000 666.71875 L 0 666.71875 Z M 0 0 "/>
</clipPath>
<clipPath id="clip2">
  <path d="M 0 0 L 667 0 L 667 666.71875 L 0 666.71875 Z M 0 0 "/>
</clipPath>
<clipPath id="clip3">
  <path d="M 0 0 L 334 0 L 334 666.71875 L 0 666.71875 Z M 0 0 "/>
</clipPath>
</defs>
<g id="surface775">
<g clip-path="url(#clip1)" clip-rule="nonzero">
<path style=" stroke:none;fill-rule:evenodd;fill:rgb(92.939758%,16.078186%,22.3526%);fill-opacity:1;" d="M 0 666.667969 L 0 0 L 1000 0 L 1000 666.667969 Z M 0 666.667969 "/>
</g>
<g clip-path="url(#clip2)" clip-rule="nonzero">
<path style=" stroke:none;fill-rule:evenodd;fill:rgb(99.998474%,99.998474%,99.998474%);fill-opacity:1;" d="M 0 0 L 666.667969 0 L 666.667969 666.667969 L 0 666.667969 Z M 0 0 "/>
</g>
<g clip-path="url(#clip3)" clip-rule="nonzero">
<path style=" stroke:none;fill-rule:evenodd;fill:rgb(0%,13.725281%,58.430481%);fill-opacity:1;" d="M 0 0 L 333.332031 0 L 333.332031 666.667969 L 0 666.667969 Z M 0 0 "/>
</g>
</g>
</svg>
